X: 150104
M: 3/4
L: 1/4
K: G
uD |\
(G2B) | dBg | (f2e) | (c2A) |\
(G2B) | dBg | (f2e) | (c2A) |\
|: (AG) |\
(F2A) | ced | B3- | Bdg |\
(f2a) | efd | g3- | g2ud |\
bza | gfe | dgg | Aee |\
ded | cAd |[1 G3- | G :|[2 G3- | G2 |]


